lg/sourcetree.svg

<svg viewBox="0 0 256 322" version="1.1" xmlns="http://www.w3.org/2000/svg" preserveAspectRatio="xMidYMid" height="1em" width="1em">
  <defs>
    <linearGradient x1="49.9279136%" y1="90.7207251%" x2="49.9279136%" y2="36.2883187%" id="a">
      <stop stop-color="#0052CC" offset="18%"/>
      <stop stop-color="#2684FF" offset="100%"/>
    </linearGradient>
  </defs>
  <g>
    <path d="M255.461938,127.520788 C255.461938,57.0930016 198.368936,1.84628788e-15 127.941149,-2.46615337e-15 C65.1710463,-0.0885209711 11.6783652,45.5310512 1.85586153,107.527923 C-7.96664212,169.524795 28.8047319,229.445395 88.5280788,248.764182 L88.5280788,312.659091 C88.5280788,317.611819 92.5430578,321.626798 97.4957854,321.626798 L158.027805,321.626798 C162.980533,321.626798 166.995512,317.611819 166.995512,312.659091 L166.995512,248.80902 C219.670397,231.847712 255.40222,182.859075 255.461938,127.520788 Z M127.941149,170.610619 C104.130911,170.610619 84.8288998,151.308607 84.8288998,127.498369 C84.8288998,103.688131 104.130911,84.3861193 127.941149,84.3861193 C151.751387,84.3861193 171.053399,103.688131 171.053399,127.498369 C171.053399,151.308607 151.751387,170.610619 127.941149,170.610619 Z" fill="#2684FF"/>
    <path d="M127.941149,-0.000118601854 L127.941149,84.4309579 C151.751387,84.4309579 171.053399,103.732969 171.053399,127.543207 C171.053399,151.353445 151.751387,170.655457 127.941149,170.655457 C138.394146,170.655457 148.419014,174.807894 155.810399,182.199278 C163.201783,189.590663 167.35422,199.615531 167.35422,210.068528 L167.35422,248.853859 C227.099618,229.531583 263.887234,169.591972 254.064733,107.57277 C244.242233,45.5535674 190.733313,-0.0850241281 127.941149,-0.000118601854 Z" fill="url(#a)"/>
  </g>
</svg>

<svg viewBox="0 0 256 322" xmlns="http://www.w3.org/2000/svg" preserveAspectRatio="xMidYMid" height="1em" width="1em">
  <defs>
    <linearGradient x1="49.928%" y1="90.721%" x2="49.928%" y2="36.288%" id="a">
      <stop stop-color="#0052CC" offset="18%"/>
      <stop stop-color="#2684FF" offset="100%"/>
    </linearGradient>
  </defs>
  <path d="M255.462 127.52C255.462 57.094 198.369 0 127.942 0 65.17-.089 11.677 45.531 1.855 107.528c-9.823 61.997 26.949 121.917 86.672 141.236v63.895a8.968 8.968 0 0 0 8.968 8.968h60.532a8.968 8.968 0 0 0 8.968-8.968v-63.85c52.674-16.961 88.406-65.95 88.466-121.288Zm-127.52 43.09c-23.811 0-43.113-19.301-43.113-43.112 0-23.81 19.302-43.112 43.112-43.112 23.81 0 43.112 19.302 43.112 43.112 0 23.81-19.302 43.113-43.112 43.113Z" fill="#2684FF"/>
  <path d="M127.941 0v84.43c23.81 0 43.112 19.302 43.112 43.112 0 23.81-19.302 43.112-43.112 43.112a39.413 39.413 0 0 1 39.413 39.414v38.785c59.746-19.322 96.533-79.262 86.71-141.281C244.243 45.553 190.735-.085 127.942 0Z" fill="url(#a)"/>
</svg>
